X:1
T:Title
L:1/8
M:2/2
I:linebreak $
K:G
V:1 treble nm="Voice" snm="Voice"
V:1
 A2 | B4 BAc | B2- B2 A2 |"Em" B4 BA B2 | AG- G2 E2 G2 |$ B4 BABc | c2 B2- B2 AB | c2 B2 A2 FDEF | %8
 G6 ::$ c2 | g2 ga ge e2 | dB- Bc B2 ee | gfe g2 a2 | be- ef e2 ef |$ g2 a2 gf e2 | dB Bd B2 AB | %16
 cBAG FDEF | G6 :| %18
